images/51004221.svg

<?xml version="1.0" encoding="UTF-8"?>
<svg xmlns="http://www.w3.org/2000/svg" xmlns:xlink="http://www.w3.org/1999/xlink" width="300pt" height="300pt" viewBox="0 0 300 300" version="1.1">
<defs>
<g>
<symbol overflow="visible" id="glyph0-0">
<path style="stroke:none;" d="M 0.546875 1.9375 L 0.546875 -7.75 L 6.046875 -7.75 L 6.046875 1.9375 Z M 1.171875 1.328125 L 5.4375 1.328125 L 5.4375 -7.140625 L 1.171875 -7.140625 Z M 1.171875 1.328125 "/>
</symbol>
<symbol overflow="visible" id="glyph0-1">
<path style="stroke:none;" d="M 5.890625 -7.75 L 5.890625 -6.703125 C 5.472656 -6.898438 5.082031 -7.046875 4.71875 -7.140625 C 4.351562 -7.234375 4 -7.28125 3.65625 -7.28125 C 3.070312 -7.28125 2.617188 -7.164062 2.296875 -6.9375 C 1.972656 -6.707031 1.8125 -6.382812 1.8125 -5.96875 C 1.8125 -5.613281 1.914062 -5.34375 2.125 -5.15625 C 2.34375 -4.976562 2.75 -4.832031 3.34375 -4.71875 L 4 -4.59375 C 4.8125 -4.4375 5.410156 -4.160156 5.796875 -3.765625 C 6.179688 -3.378906 6.375 -2.863281 6.375 -2.21875 C 6.375 -1.4375 6.113281 -0.84375 5.59375 -0.4375 C 5.070312 -0.0390625 4.304688 0.15625 3.296875 0.15625 C 2.921875 0.15625 2.515625 0.109375 2.078125 0.015625 C 1.648438 -0.0664062 1.207031 -0.191406 0.75 -0.359375 L 0.75 -1.46875 C 1.195312 -1.21875 1.628906 -1.03125 2.046875 -0.90625 C 2.472656 -0.78125 2.890625 -0.71875 3.296875 -0.71875 C 3.921875 -0.71875 4.398438 -0.835938 4.734375 -1.078125 C 5.066406 -1.328125 5.234375 -1.675781 5.234375 -2.125 C 5.234375 -2.519531 5.113281 -2.828125 4.875 -3.046875 C 4.632812 -3.273438 4.238281 -3.445312 3.6875 -3.5625 L 3.03125 -3.6875 C 2.21875 -3.84375 1.628906 -4.09375 1.265625 -4.4375 C 0.898438 -4.78125 0.71875 -5.257812 0.71875 -5.875 C 0.71875 -6.582031 0.96875 -7.140625 1.46875 -7.546875 C 1.96875 -7.960938 2.660156 -8.171875 3.546875 -8.171875 C 3.921875 -8.171875 4.300781 -8.132812 4.6875 -8.0625 C 5.082031 -7.988281 5.484375 -7.882812 5.890625 -7.75 Z M 5.890625 -7.75 "/>
</symbol>
<symbol overflow="visible" id="glyph0-2">
<path style="stroke:none;" d="M 1.078125 -8.015625 L 2.546875 -8.015625 L 6.09375 -1.3125 L 6.09375 -8.015625 L 7.15625 -8.015625 L 7.15625 0 L 5.6875 0 L 2.125 -6.703125 L 2.125 0 L 1.078125 0 Z M 1.078125 -8.015625 "/>
</symbol>
<symbol overflow="visible" id="glyph0-3">
<path style="stroke:none;" d="M 1.078125 -8.015625 L 2.171875 -8.015625 L 2.171875 -4.734375 L 6.109375 -4.734375 L 6.109375 -8.015625 L 7.1875 -8.015625 L 7.1875 0 L 6.109375 0 L 6.109375 -3.8125 L 2.171875 -3.8125 L 2.171875 0 L 1.078125 0 Z M 1.078125 -8.015625 "/>
</symbol>
<symbol overflow="visible" id="glyph0-4">
<path style="stroke:none;" d="M 4.328125 -7.28125 C 3.546875 -7.28125 2.921875 -6.984375 2.453125 -6.390625 C 1.992188 -5.804688 1.765625 -5.007812 1.765625 -4 C 1.765625 -2.988281 1.992188 -2.1875 2.453125 -1.59375 C 2.921875 -1.007812 3.546875 -0.71875 4.328125 -0.71875 C 5.117188 -0.71875 5.742188 -1.007812 6.203125 -1.59375 C 6.660156 -2.1875 6.890625 -2.988281 6.890625 -4 C 6.890625 -5.007812 6.660156 -5.804688 6.203125 -6.390625 C 5.742188 -6.984375 5.117188 -7.28125 4.328125 -7.28125 Z M 4.328125 -8.171875 C 5.453125 -8.171875 6.351562 -7.789062 7.03125 -7.03125 C 7.707031 -6.28125 8.046875 -5.269531 8.046875 -4 C 8.046875 -2.738281 7.707031 -1.726562 7.03125 -0.96875 C 6.351562 -0.21875 5.453125 0.15625 4.328125 0.15625 C 3.203125 0.15625 2.300781 -0.21875 1.625 -0.96875 C 0.957031 -1.71875 0.625 -2.726562 0.625 -4 C 0.625 -5.269531 0.957031 -6.28125 1.625 -7.03125 C 2.300781 -7.789062 3.203125 -8.171875 4.328125 -8.171875 Z M 4.328125 -8.171875 "/>
</symbol>
<symbol overflow="visible" id="glyph0-5">
<path style="stroke:none;" d="M 1.078125 -8.015625 L 5.6875 -8.015625 L 5.6875 -7.109375 L 2.171875 -7.109375 L 2.171875 -4.75 L 5.34375 -4.75 L 5.34375 -3.828125 L 2.171875 -3.828125 L 2.171875 0 L 1.078125 0 Z M 1.078125 -8.015625 "/>
</symbol>
</g>
</defs>
<g id="surface24049">
<rect x="0" y="0" width="300" height="300" style="fill:rgb(100%,100%,100%);fill-opacity:1;stroke:none;"/>
<path style="fill:none;stroke-width:1.2;stroke-linecap:butt;stroke-linejoin:miter;stroke:rgb(80%,80%,0%);stroke-opacity:1;stroke-miterlimit:10;" d="M 190.054688 111.484375 L 202.902344 113.007812 "/>
<path style="fill:none;stroke-width:1.2;stroke-linecap:butt;stroke-linejoin:miter;stroke:rgb(0%,0%,0%);stroke-opacity:1;stroke-miterlimit:10;" d="M 202.902344 113.007812 L 215.75 114.535156 "/>
<path style="fill:none;stroke-width:1.2;stroke-linecap:butt;stroke-linejoin:miter;stroke:rgb(0%,0%,0%);stroke-opacity:1;stroke-miterlimit:10;" d="M 179.210938 134.980469 L 184.632812 123.230469 "/>
<path style="fill:none;stroke-width:1.2;stroke-linecap:butt;stroke-linejoin:miter;stroke:rgb(80%,80%,0%);stroke-opacity:1;stroke-miterlimit:10;" d="M 184.632812 123.230469 L 190.054688 111.484375 "/>
<path style=" stroke:none;fill-rule:nonzero;fill:rgb(100%,100%,100%);fill-opacity:1;" d="M 187.054688 104.984375 L 194.054688 104.984375 L 194.054688 117.984375 L 187.054688 117.984375 Z M 187.054688 104.984375 "/>
<g style="fill:rgb(80%,80%,0%);fill-opacity:1;">
  <use xlink:href="#glyph0-1" x="187.054688" y="114.885742"/>
</g>
<path style="fill:none;stroke-width:1.2;stroke-linecap:butt;stroke-linejoin:miter;stroke:rgb(0%,0%,0%);stroke-opacity:1;stroke-miterlimit:10;" d="M 215.75 114.535156 L 220.789062 139.914062 "/>
<path style="fill:none;stroke-width:1.2;stroke-linecap:butt;stroke-linejoin:miter;stroke:rgb(0%,0%,0%);stroke-opacity:1;stroke-miterlimit:10;" d="M 222.226562 115.886719 L 226.257812 136.191406 "/>
<path style="fill:none;stroke-width:1.2;stroke-linecap:butt;stroke-linejoin:miter;stroke:rgb(0%,0%,0%);stroke-opacity:1;stroke-miterlimit:10;" d="M 235.210938 97.480469 L 215.75 114.535156 "/>
<path style="fill:none;stroke-width:1.2;stroke-linecap:butt;stroke-linejoin:miter;stroke:rgb(0%,0%,0%);stroke-opacity:1;stroke-miterlimit:10;" d="M 220.789062 139.914062 L 245.289062 148.242188 "/>
<path style="fill:none;stroke-width:1.2;stroke-linecap:butt;stroke-linejoin:miter;stroke:rgb(0%,0%,0%);stroke-opacity:1;stroke-miterlimit:10;" d="M 220.789062 139.914062 L 198.207031 152.550781 "/>
<path style="fill:none;stroke-width:1.2;stroke-linecap:butt;stroke-linejoin:miter;stroke:rgb(0%,0%,0%);stroke-opacity:1;stroke-miterlimit:10;" d="M 245.289062 148.242188 L 264.75 131.1875 "/>
<path style="fill:none;stroke-width:1.2;stroke-linecap:butt;stroke-linejoin:miter;stroke:rgb(0%,0%,0%);stroke-opacity:1;stroke-miterlimit:10;" d="M 264.75 131.1875 L 259.710938 105.804688 "/>
<path style="fill:none;stroke-width:1.2;stroke-linecap:butt;stroke-linejoin:miter;stroke:rgb(0%,0%,0%);stroke-opacity:1;stroke-miterlimit:10;" d="M 259.710938 105.804688 L 235.210938 97.480469 "/>
<path style="fill:none;stroke-width:1.2;stroke-linecap:butt;stroke-linejoin:miter;stroke:rgb(0%,0%,0%);stroke-opacity:1;stroke-miterlimit:10;" d="M 198.207031 152.550781 L 195.15625 178.246094 "/>
<path style="fill:none;stroke-width:1.2;stroke-linecap:butt;stroke-linejoin:miter;stroke:rgb(0%,0%,0%);stroke-opacity:1;stroke-miterlimit:10;" d="M 198.207031 152.550781 L 179.210938 134.980469 "/>
<path style="fill:none;stroke-width:1.2;stroke-linecap:butt;stroke-linejoin:miter;stroke:rgb(0%,0%,0%);stroke-opacity:1;stroke-miterlimit:10;" d="M 200.441406 146.324219 L 185.246094 132.265625 "/>
<path style="fill:none;stroke-width:1.2;stroke-linecap:butt;stroke-linejoin:miter;stroke:rgb(0%,0%,0%);stroke-opacity:1;stroke-miterlimit:10;" d="M 195.15625 178.246094 L 193.632812 191.09375 "/>
<path style="fill:none;stroke-width:1.2;stroke-linecap:butt;stroke-linejoin:miter;stroke:rgb(0%,0%,100%);stroke-opacity:1;stroke-miterlimit:10;" d="M 193.632812 191.09375 L 192.105469 203.941406 "/>
<path style="fill:none;stroke-width:1.2;stroke-linecap:butt;stroke-linejoin:miter;stroke:rgb(0%,0%,0%);stroke-opacity:1;stroke-miterlimit:10;" d="M 188.804688 180.097656 L 187.585938 190.378906 "/>
<path style="fill:none;stroke-width:1.2;stroke-linecap:butt;stroke-linejoin:miter;stroke:rgb(0%,0%,100%);stroke-opacity:1;stroke-miterlimit:10;" d="M 187.585938 190.378906 L 186.363281 200.65625 "/>
<path style="fill:none;stroke-width:1.2;stroke-linecap:butt;stroke-linejoin:miter;stroke:rgb(0%,0%,0%);stroke-opacity:1;stroke-miterlimit:10;" d="M 200.898438 181.535156 L 199.675781 191.8125 "/>
<path style="fill:none;stroke-width:1.2;stroke-linecap:butt;stroke-linejoin:miter;stroke:rgb(0%,0%,100%);stroke-opacity:1;stroke-miterlimit:10;" d="M 199.675781 191.8125 L 198.457031 202.089844 "/>
<path style=" stroke:none;fill-rule:nonzero;fill:rgb(100%,100%,100%);fill-opacity:1;" d="M 188.105469 197.441406 L 196.105469 197.441406 L 196.105469 210.441406 L 188.105469 210.441406 Z M 188.105469 197.441406 "/>
<g style="fill:rgb(0%,0%,100%);fill-opacity:1;">
  <use xlink:href="#glyph0-2" x="188.105469" y="207.342773"/>
</g>
<path style="fill:none;stroke-width:1.2;stroke-linecap:butt;stroke-linejoin:miter;stroke:rgb(0%,0%,0%);stroke-opacity:1;stroke-miterlimit:10;" d="M 179.210938 134.980469 L 166.519531 137.5 "/>
<path style="fill:none;stroke-width:1.2;stroke-linecap:butt;stroke-linejoin:miter;stroke:rgb(0%,0%,100%);stroke-opacity:1;stroke-miterlimit:10;" d="M 166.519531 137.5 L 153.828125 140.019531 "/>
<path style="fill:none;stroke-width:1.2;stroke-linecap:butt;stroke-linejoin:miter;stroke:rgb(0%,0%,100%);stroke-opacity:1;stroke-miterlimit:10;" d="M 153.828125 140.019531 L 145.300781 130.289062 "/>
<path style="fill:none;stroke-width:1.2;stroke-linecap:butt;stroke-linejoin:miter;stroke:rgb(0%,0%,0%);stroke-opacity:1;stroke-miterlimit:10;" d="M 145.300781 130.289062 L 136.773438 120.558594 "/>
<path style=" stroke:none;fill-rule:nonzero;fill:rgb(100%,100%,100%);fill-opacity:1;" d="M 145.828125 133.519531 L 162.828125 133.519531 L 162.828125 146.519531 L 145.828125 146.519531 Z M 145.828125 133.519531 "/>
<g style="fill:rgb(0%,0%,100%);fill-opacity:1;">
  <use xlink:href="#glyph0-2" x="145.828125" y="143.420898"/>
  <use xlink:href="#glyph0-3" x="153.811523" y="143.420898"/>
</g>
<path style="fill:none;stroke-width:1.2;stroke-linecap:butt;stroke-linejoin:miter;stroke:rgb(0%,0%,0%);stroke-opacity:1;stroke-miterlimit:10;" d="M 139.65625 121.535156 L 143.820312 109.285156 "/>
<path style="fill:none;stroke-width:1.2;stroke-linecap:butt;stroke-linejoin:miter;stroke:rgb(100%,0%,0%);stroke-opacity:1;stroke-miterlimit:10;" d="M 143.820312 109.285156 L 147.984375 97.035156 "/>
<path style="fill:none;stroke-width:1.2;stroke-linecap:butt;stroke-linejoin:miter;stroke:rgb(0%,0%,0%);stroke-opacity:1;stroke-miterlimit:10;" d="M 133.890625 119.578125 L 138.054688 107.328125 "/>
<path style="fill:none;stroke-width:1.2;stroke-linecap:butt;stroke-linejoin:miter;stroke:rgb(100%,0%,0%);stroke-opacity:1;stroke-miterlimit:10;" d="M 138.054688 107.328125 L 142.21875 95.078125 "/>
<path style="fill:none;stroke-width:1.2;stroke-linecap:butt;stroke-linejoin:miter;stroke:rgb(0%,0%,0%);stroke-opacity:1;stroke-miterlimit:10;" d="M 136.773438 120.558594 L 111.394531 125.597656 "/>
<path style=" stroke:none;fill-rule:nonzero;fill:rgb(100%,100%,100%);fill-opacity:1;" d="M 141.101562 89.558594 L 150.101562 89.558594 L 150.101562 102.558594 L 141.101562 102.558594 Z M 141.101562 89.558594 "/>
<g style="fill:rgb(100%,0%,0%);fill-opacity:1;">
  <use xlink:href="#glyph0-4" x="141.101562" y="99.459961"/>
</g>
<path style="fill:none;stroke-width:1.2;stroke-linecap:butt;stroke-linejoin:miter;stroke:rgb(0%,0%,0%);stroke-opacity:1;stroke-miterlimit:10;" d="M 111.394531 125.597656 L 94.339844 106.136719 "/>
<path style="fill:none;stroke-width:1.2;stroke-linecap:butt;stroke-linejoin:miter;stroke:rgb(0%,0%,0%);stroke-opacity:1;stroke-miterlimit:10;" d="M 105.109375 127.664062 L 91.464844 112.09375 "/>
<path style="fill:none;stroke-width:1.2;stroke-linecap:butt;stroke-linejoin:miter;stroke:rgb(0%,0%,0%);stroke-opacity:1;stroke-miterlimit:10;" d="M 103.066406 150.097656 L 111.394531 125.597656 "/>
<path style="fill:none;stroke-width:1.2;stroke-linecap:butt;stroke-linejoin:miter;stroke:rgb(0%,0%,0%);stroke-opacity:1;stroke-miterlimit:10;" d="M 94.339844 106.136719 L 68.957031 111.175781 "/>
<path style="fill:none;stroke-width:1.2;stroke-linecap:butt;stroke-linejoin:miter;stroke:rgb(0%,0%,0%);stroke-opacity:1;stroke-miterlimit:10;" d="M 68.957031 111.175781 L 60.632812 135.675781 "/>
<path style="fill:none;stroke-width:1.2;stroke-linecap:butt;stroke-linejoin:miter;stroke:rgb(0%,0%,0%);stroke-opacity:1;stroke-miterlimit:10;" d="M 73.890625 115.585938 L 67.230469 135.183594 "/>
<path style="fill:none;stroke-width:1.2;stroke-linecap:butt;stroke-linejoin:miter;stroke:rgb(0%,0%,0%);stroke-opacity:1;stroke-miterlimit:10;" d="M 60.632812 135.675781 L 47.941406 138.195312 "/>
<path style="fill:none;stroke-width:1.2;stroke-linecap:butt;stroke-linejoin:miter;stroke:rgb(20%,80%,80%);stroke-opacity:1;stroke-miterlimit:10;" d="M 47.941406 138.195312 L 35.25 140.714844 "/>
<path style="fill:none;stroke-width:1.2;stroke-linecap:butt;stroke-linejoin:miter;stroke:rgb(0%,0%,0%);stroke-opacity:1;stroke-miterlimit:10;" d="M 60.632812 135.675781 L 77.6875 155.136719 "/>
<path style=" stroke:none;fill-rule:nonzero;fill:rgb(100%,100%,100%);fill-opacity:1;" d="M 28.25 134.214844 L 35.25 134.214844 L 35.25 147.214844 L 28.25 147.214844 Z M 28.25 134.214844 "/>
<g style="fill:rgb(20%,80%,80%);fill-opacity:1;">
  <use xlink:href="#glyph0-5" x="28.25" y="144.116211"/>
</g>
<path style="fill:none;stroke-width:1.2;stroke-linecap:butt;stroke-linejoin:miter;stroke:rgb(0%,0%,0%);stroke-opacity:1;stroke-miterlimit:10;" d="M 77.6875 155.136719 L 103.066406 150.097656 "/>
<path style="fill:none;stroke-width:1.2;stroke-linecap:butt;stroke-linejoin:miter;stroke:rgb(0%,0%,0%);stroke-opacity:1;stroke-miterlimit:10;" d="M 79.039062 148.660156 L 99.34375 144.628906 "/>
</g>
</svg>

<svg xmlns="http://www.w3.org/2000/svg" xmlns:xlink="http://www.w3.org/1999/xlink" width="300pt" height="300pt" viewBox="0 0 300 300"><defs><symbol overflow="visible"><path d="M.547 1.938V-7.75h5.5v9.688zm.625-.61h4.266v-8.47H1.171zm0 0"/></symbol><symbol overflow="visible" id="a"><path d="M5.89-7.75v1.047c-.417-.195-.808-.344-1.17-.438-.368-.094-.72-.14-1.064-.14-.586 0-1.04.116-1.36.343-.323.23-.483.554-.483.968 0 .357.1.626.312.814.22.18.625.324 1.22.437L4-4.593c.813.157 1.41.434 1.797.828.383.387.578.903.578 1.547 0 .783-.262 1.376-.78 1.783-.525.398-1.29.593-2.298.593-.375 0-.78-.047-1.22-.14C1.648-.066 1.208-.19.75-.36v-1.11c.445.25.88.44 1.297.564.426.125.844.187 1.25.187.625 0 1.1-.116 1.437-.358.332-.25.5-.598.5-1.047 0-.395-.12-.703-.36-.922-.24-.226-.636-.398-1.186-.515l-.657-.126c-.81-.156-1.4-.406-1.764-.75C.898-4.78.72-5.258.72-5.875c0-.707.25-1.266.75-1.672.5-.414 1.19-.625 2.077-.625.375 0 .754.04 1.14.11.395.074.797.18 1.204.312zm0 0"/></symbol><symbol overflow="visible" id="b"><path d="M1.078-8.016h1.47l3.546 6.704v-6.704h1.062V0H5.688L2.124-6.703V0H1.078zm0 0"/></symbol><symbol overflow="visible" id="c"><path d="M1.078-8.016h1.094v3.282H6.11v-3.282h1.077V0H6.11v-3.813H2.17V0H1.078zm0 0"/></symbol><symbol overflow="visible" id="d"><path d="M4.328-7.28c-.78 0-1.406.296-1.875.89-.46.585-.687 1.382-.687 2.39 0 1.012.226 1.813.687 2.406.47.586 1.094.875 1.875.875.79 0 1.414-.288 1.875-.874.457-.593.688-1.394.688-2.406 0-1.008-.23-1.805-.687-2.39-.46-.594-1.086-.89-1.875-.89zm0-.892c1.125 0 2.024.383 2.703 1.14C7.708-6.28 8.048-5.27 8.048-4c0 1.262-.34 2.273-1.016 3.03C6.353-.22 5.454.157 4.33.157S2.3-.22 1.625-.97c-.668-.75-1-1.757-1-3.03 0-1.27.332-2.28 1-3.03.676-.76 1.578-1.142 2.703-1.142zm0 0"/></symbol><symbol overflow="visible" id="e"><path d="M1.078-8.016h4.61v.907H2.171v2.36h3.172v.922H2.172V0H1.078zm0 0"/></symbol></defs><g><path fill="#fff" d="M0 0h300v300H0z"/><path d="M190.055 111.484l12.847 1.524" stroke-width="1.2" stroke="#cc0" stroke-miterlimit="10" fill="none"/><path d="M202.902 113.008l12.848 1.527M179.21 134.98l5.423-11.75" stroke-width="1.2" stroke="#000" stroke-miterlimit="10" fill="none"/><path d="M184.633 123.23l5.422-11.746" stroke-width="1.2" stroke="#cc0" stroke-miterlimit="10" fill="none"/><path d="M187.055 104.984h7v13h-7zm0 0" fill="#fff"/><use xlink:href="#a" x="187.055" y="114.886" fill="#cc0"/><path d="M215.75 114.535l5.04 25.38M222.227 115.887l4.03 20.304M235.21 97.48l-19.46 17.055M220.79 139.914l24.5 8.328M220.79 139.914l-22.583 12.637M245.29 148.242l19.46-17.054M264.75 131.188l-5.04-25.383M259.71 105.805l-24.5-8.325M198.207 152.55l-3.05 25.696M198.207 152.55l-18.996-17.57M200.44 146.324l-15.194-14.058M195.156 178.246l-1.523 12.848" stroke-width="1.2" stroke="#000" stroke-miterlimit="10" fill="none"/><path d="M193.633 191.094l-1.528 12.847" stroke-width="1.2" stroke="#00f" stroke-miterlimit="10" fill="none"/><path d="M188.805 180.098l-1.22 10.28" stroke-width="1.2" stroke="#000" stroke-miterlimit="10" fill="none"/><path d="M187.586 190.38l-1.223 10.276" stroke-width="1.2" stroke="#00f" stroke-miterlimit="10" fill="none"/><path d="M200.898 181.535l-1.222 10.278" stroke-width="1.2" stroke="#000" stroke-miterlimit="10" fill="none"/><path d="M199.676 191.813l-1.22 10.277" stroke-width="1.2" stroke="#00f" stroke-miterlimit="10" fill="none"/><path d="M188.105 197.44h8v13h-8zm0 0" fill="#fff"/><use xlink:href="#b" x="188.105" y="207.343" fill="#00f"/><path d="M179.21 134.98l-12.69 2.52" stroke-width="1.2" stroke="#000" stroke-miterlimit="10" fill="none"/><path d="M166.52 137.5l-12.692 2.52M153.828 140.02l-8.527-9.73" stroke-width="1.2" stroke="#00f" stroke-miterlimit="10" fill="none"/><path d="M145.3 130.29l-8.527-9.73" stroke-width="1.2" stroke="#000" stroke-miterlimit="10" fill="none"/><path d="M145.828 133.52h17v13h-17zm0 0" fill="#fff"/><g fill="#00f"><use xlink:href="#b" x="145.828" y="143.421"/><use xlink:href="#c" x="153.812" y="143.421"/></g><path d="M139.656 121.535l4.164-12.25" stroke-width="1.2" stroke="#000" stroke-miterlimit="10" fill="none"/><path d="M143.82 109.285l4.164-12.25" stroke-width="1.2" stroke="#f00" stroke-miterlimit="10" fill="none"/><path d="M133.89 119.578l4.165-12.25" stroke-width="1.2" stroke="#000" stroke-miterlimit="10" fill="none"/><path d="M138.055 107.328l4.164-12.25" stroke-width="1.2" stroke="#f00" stroke-miterlimit="10" fill="none"/><path d="M136.773 120.56l-25.378 5.038" stroke-width="1.2" stroke="#000" stroke-miterlimit="10" fill="none"/><path d="M141.102 89.56h9v13h-9zm0 0" fill="#fff"/><use xlink:href="#d" x="141.102" y="99.46" fill="#f00"/><path d="M111.395 125.598l-17.055-19.46M105.11 127.664l-13.645-15.57M103.066 150.098l8.33-24.5M94.34 106.137l-25.383 5.04M68.957 111.176l-8.324 24.5M73.89 115.586l-6.66 19.598M60.633 135.676l-12.692 2.52" stroke-width="1.2" stroke="#000" stroke-miterlimit="10" fill="none"/><path d="M47.94 138.195l-12.69 2.52" stroke-width="1.2" stroke="#3cc" stroke-miterlimit="10" fill="none"/><path d="M60.633 135.676l17.054 19.46" stroke-width="1.2" stroke="#000" stroke-miterlimit="10" fill="none"/><path d="M28.25 134.215h7v13h-7zm0 0" fill="#fff"/><use xlink:href="#e" x="28.25" y="144.116" fill="#3cc"/><path d="M77.688 155.137l25.378-5.04M79.04 148.66l20.304-4.03" stroke-width="1.2" stroke="#000" stroke-miterlimit="10" fill="none"/></g></svg>
